X:11
T:Bonnie lassie take advice
T:Mo chailinn og thoir le toigh an aire dhomh
R:Slow Air
S:Simon Fraser Collection
N:No.227
O:Scottish
M:C
L:1/8
Q:1/2=80
K:E_
E>F|G3F G4|G2c2 B3E|G2F2F2 E>F|G3F G4|G2e2 d3=B|c2G2G2:|
~e>f|g3f e2 dc|=Bc F2 G3F|E3F G4|G2e2d3=B|c2G2G2 ~e>f|
g3f e2dc|=Bc F2 G3F|E3 C E2 zF|G2e2 d3c|B2G2G2||

